icons/linkedin.svg

<svg width="49" height="49" viewBox="0 0 49 49" fill="none" xmlns="http://www.w3.org/2000/svg">
<path d="M12.0134 10.028H36.0403V38.0593H12.0134V10.028Z" fill="#A6A6A6"/>
<path d="M24.0268 0.0167847C10.757 0.0167847 0 10.7738 0 24.0436C0 37.3135 10.757 48.0705 24.0268 48.0705C37.2967 48.0705 48.0537 37.3135 48.0537 24.0436C48.0537 10.7738 37.2967 0.0167847 24.0268 0.0167847ZM18.1453 34.0023H13.2798V18.3448H18.1453V34.0023ZM15.6825 16.4226C14.1458 16.4226 13.1522 15.3339 13.1522 13.9874C13.1522 12.6134 14.1758 11.5572 15.7451 11.5572C17.3143 11.5572 18.2754 12.6134 18.3055 13.9874C18.3055 15.3339 17.3143 16.4226 15.6825 16.4226ZM35.9151 34.0023H31.0497V25.3251C31.0497 23.3053 30.3439 21.9338 28.5844 21.9338C27.2404 21.9338 26.442 22.8623 26.0892 23.7558C25.959 24.0737 25.9265 24.5242 25.9265 24.9722V33.9998H21.0585V23.3378C21.0585 21.3832 20.996 19.7488 20.9309 18.3423H25.1581L25.3809 20.5172H25.4785C26.1192 19.496 27.6884 17.9894 30.3139 17.9894C33.5149 17.9894 35.9151 20.1343 35.9151 24.7444V34.0023Z" fill="#DBDBDB"/>
</svg>

<svg width="49" height="49" fill="none" xmlns="http://www.w3.org/2000/svg"><path d="M12.013 10.028H36.04v28.031H12.013V10.028Z" fill="#A6A6A6"/><path d="M24.027.017C10.757.017 0 10.774 0 24.044 0 37.314 10.757 48.07 24.027 48.07c13.27 0 24.027-10.758 24.027-24.027 0-13.27-10.757-24.027-24.027-24.027Zm-5.882 33.985H13.28V18.345h4.865v15.657Zm-2.463-17.58c-1.536 0-2.53-1.088-2.53-2.435 0-1.374 1.024-2.43 2.593-2.43 1.57 0 2.53 1.056 2.56 2.43 0 1.347-.99 2.436-2.623 2.436Zm20.233 17.58H31.05v-8.677c0-2.02-.706-3.391-2.466-3.391-1.344 0-2.142.928-2.495 1.822-.13.318-.162.768-.162 1.216V34h-4.869V23.338c0-1.955-.062-3.59-.127-4.996h4.227l.223 2.175h.098c.64-1.021 2.21-2.528 4.835-2.528 3.2 0 5.601 2.145 5.601 6.755v9.258Z" fill="#DBDBDB"/></svg>
